tools/download-figma-icons/icons/outlined-large/gas-storage.svg

<svg width="64" height="64" viewBox="0 0 64 64" fill="none" xmlns="http://www.w3.org/2000/svg">
<path fill-rule="evenodd" clip-rule="evenodd" d="M43.667 42.7805V32.0005C43.667 31.9305 43.656 31.8635 43.646 31.7975C43.645 31.7835 43.649 31.7705 43.647 31.7585C43.644 31.7345 43.622 31.6165 43.58 31.4325C52.902 31.2235 58.196 28.9655 61 27.1035V37.6045C59.954 38.7055 55.512 42.4825 43.667 42.7805ZM21.833 51.0005C8.803 51.0005 4.06 46.9295 3 45.8095V35.3085C5.94 37.2615 11.62 39.6505 21.833 39.6505C32.041 39.6505 37.725 37.2585 40.667 35.3035V45.8035C39.578 46.9505 34.809 51.0005 21.833 51.0005ZM21.833 21.2005C36.372 21.2005 39.821 29.2065 40.527 31.5975C39.201 32.9055 34.313 36.6505 21.833 36.6505C9.625 36.6505 4.69 33.0795 3.244 31.7065C4.426 29.1685 9.149 21.2005 21.833 21.2005ZM42.167 13.0005C56.717 13.0005 60.16 21.0165 60.861 23.3975C59.547 24.6935 54.719 28.3845 42.465 28.4445C41.913 27.3505 41.119 26.0935 39.981 24.8425C37.758 22.3935 33.813 19.5675 27.1 18.5725C30.001 15.7045 34.711 13.0005 42.167 13.0005ZM63.921 38.6105C63.938 38.5535 63.959 38.4985 63.971 38.4395C63.978 38.4055 63.977 38.3715 63.981 38.3365C63.989 38.2745 64 38.2145 64 38.1505V23.8005C64 23.7305 63.988 23.6635 63.979 23.5965C63.978 23.5835 63.982 23.5705 63.98 23.5575C63.957 23.4145 63.371 20.0065 60.315 16.6415C57.563 13.6115 52.181 10.0005 42.167 10.0005C32.195 10.0005 26.488 14.3495 23.375 18.2355C22.871 18.2165 22.362 18.2005 21.833 18.2005C4.681 18.2005 0.12 31.3955 0.076 31.5295C0.069 31.5515 0.068 31.5735 0.063 31.5955C0.044 31.6595 0.03 31.7245 0.021 31.7925C0.015 31.8365 0.01 31.8805 0.008 31.9245C0.006 31.9505 0 31.9735 0 32.0005V46.3495C0 46.3835 0.008 46.4145 0.01 46.4465C0.014 46.5095 0.017 46.5735 0.029 46.6365C0.039 46.6855 0.056 46.7315 0.07 46.7785C0.084 46.8255 0.095 46.8735 0.113 46.9195C0.137 46.9755 0.168 47.0275 0.198 47.0815C0.215 47.1115 0.228 47.1445 0.247 47.1755C0.431 47.4535 4.935 54.0005 21.833 54.0005C38.502 54.0005 43.12 47.6165 43.405 47.1945C43.408 47.1905 43.411 47.1865 43.414 47.1815C43.415 47.1805 43.416 47.1785 43.417 47.1775C43.426 47.1645 43.431 47.1505 43.438 47.1365C43.481 47.0675 43.521 46.9965 43.553 46.9205C43.568 46.8845 43.575 46.8475 43.587 46.8115C43.605 46.7555 43.626 46.6985 43.638 46.6375C43.644 46.6095 43.643 46.5805 43.646 46.5515C43.656 46.4845 43.667 46.4185 43.667 46.3495V45.7815C59.114 45.4135 63.462 39.4035 63.738 38.9955C63.741 38.9915 63.744 38.9875 63.747 38.9825C63.748 38.9815 63.75 38.9795 63.75 38.9785C63.759 38.9655 63.764 38.9515 63.771 38.9375C63.814 38.8685 63.854 38.7975 63.887 38.7205C63.901 38.6845 63.908 38.6465 63.921 38.6105Z" fill="black"/>
</svg>

<svg width="64" height="64" viewBox="0 0 64 64" fill="none" xmlns="http://www.w3.org/2000/svg"><path fill-rule="evenodd" clip-rule="evenodd" d="M43.667 42.78V32c0-.07-.011-.137-.021-.203-.001-.014.003-.027.001-.038a5.316 5.316 0 0 0-.067-.326c9.322-.21 14.616-2.468 17.42-4.33v10.502c-1.046 1.1-5.488 4.878-17.333 5.176ZM21.833 51C8.803 51 4.06 46.93 3 45.81V35.307c2.94 1.953 8.62 4.343 18.833 4.343 10.208 0 15.892-2.393 18.834-4.348v10.5C39.578 46.95 34.809 51 21.833 51Zm0-29.8c14.539 0 17.988 8.006 18.694 10.398-1.326 1.308-6.214 5.053-18.694 5.053-12.208 0-17.143-3.572-18.589-4.945 1.182-2.537 5.905-10.505 18.589-10.505ZM42.167 13c14.55 0 17.993 8.017 18.694 10.398-1.314 1.296-6.142 4.986-18.396 5.047a16.2 16.2 0 0 0-2.484-3.602c-2.223-2.45-6.168-5.276-12.881-6.27C30.001 15.704 34.711 13 42.167 13Zm21.754 25.61c.017-.056.038-.111.05-.17.007-.034.006-.069.01-.103.008-.063.019-.123.019-.187V23.8c0-.07-.012-.137-.021-.204-.001-.012.003-.026.001-.038-.023-.143-.609-3.552-3.665-6.916C57.563 13.612 52.181 10 42.167 10c-9.972 0-15.679 4.349-18.792 8.234a40.535 40.535 0 0 0-1.542-.034C4.681 18.2.12 31.395.076 31.529c-.007.023-.008.044-.013.067a1.474 1.474 0 0 0-.055.329C.006 31.95 0 31.973 0 32v14.35c0 .033.008.064.01.096.004.064.007.128.019.19.01.05.027.095.041.142.014.047.025.096.043.142.024.055.055.108.085.161.017.03.03.063.049.094.184.279 4.688 6.826 21.586 6.826 16.669 0 21.287-6.384 21.572-6.806l.009-.014.003-.003c.009-.014.014-.027.021-.041.043-.07.083-.14.115-.217.015-.035.022-.073.034-.108.018-.056.039-.113.051-.174.006-.029.005-.057.008-.087.01-.067.021-.133.021-.202v-.567c15.447-.368 19.795-6.378 20.071-6.786a.146.146 0 0 0 .009-.014c.001 0 .003-.002.003-.004.009-.013.014-.026.021-.04.043-.07.083-.14.116-.218.014-.035.021-.073.034-.11Z" fill="currentColor"/></svg>
